X:1
T:Reverie
%%score ( 1 2 3 )
L:1/8
Q:1/4=110
M:4/4
K:F
V:1 treble-8 nm="Guitar"
V:2 treble-8 
V:3 treble-8 
V:1
"^Low e tuned to d." B,CDG- GDCB,- | B,CDG- GDCB, |"^Debussy. Arr solo guitar G. Dempsey" g4 d4 | %3
 z2 ef g2 ed | (3e2 c2 e2 d4 | z4 B2 d2 | e2 f2 c4- | c4 G4 | A8 | A8 | a4 e4- | e2 ce d2 BG | %12
 a4 e4- | e2 ce d2 BG | g4 d4- | d2 Bd c2 x2 | A2 ea f2 df | d4 c4 | %18
 c'4"^CVI......................................................  CIII..............................  CVI.........................................................CIII....." g4 | %19
 x2 ab c'2 ag | (3a2 f2 a2 g4 | g4 _e2 g2 | [da]2 b2 f4- | f4 a2 b2 | %24
"^CVIII............." c'2 d'2 a4- | a4 [DB]2 [Dd]2 | f4 ^c4 | z2 de f2 fa | f4 ^c4 | z2 de f2 fa | %30
 f2 de f2 fa | f4 d4 | d2 c2 c4 |"^CV..............................................." x8 | %34
 [Gc]_EBA GEGE | G_EAB cE[Gc][c_e] | [da]^fdf afdf | [da]^fdf dA^FA | [Gc]_EBA GEGE | G_EAB cEc_e | %40
 [c=e^g]ece gece | [ce^g]ece gece | [cg]A[Acf]e [Ad]CAc | dCAc [Ae]C[Af]C | %44
 [f=b]d!0![ef]!-(!d !-)![Bc]BFB | [Bc]BFB cBEB | [Ace]Adc [Bd]DcB | [DB]ADB [CA]E[CG]E | %48
"^Rit." F4"^natural harmonics" f4- | f4 a4 | [DAdf]2 [E^G=Be]2 [EGBe]2 [DAdf]2 | %51
 [DAdf]2 [E^G=Be]2 [EGBe]4 | [DAdf]2 [E^G=Be]2 [EGBe]2 (3[DAdf]af | [=Be]2 [_Bd]2 [Ac]4 | %54
 [DAdf]2 [E^G=Be]2 [EGBe]2"^CV......................" (3[DAdf]ga | [DAd]2 [E^G=Be]2 [EGBe]4 | %56
 [^G=Be]2 [^F^c]2 [=Gc]2 [^GBe]2 | [A^c^f]2 [=B^d^g]2 [^GBe]4 || %58
[K:E] [Acf]2 [Bdg]2 [GBe]2 !4![egc']2 | [Acf]2 (3[Bdg]fg [GBe]2 [EGB]2 | [DG]2 [EB]2 [EG]2 E2 | %61
 [Adf]4 [dac']4 | [Acf]2 [Bdg]2 [GBe]2 [egc']2 | [Acf]2 (3[Bdg]fg [GBe]2 !0![GBb]2 | %64
 !0![Bc']2 e'2 d'2 b2 | [e=gc']2 e'2 f'2 b2 | [Bc']2 e'2 d'2 b2 | [e=gc']2 e'2 f'2 b2 || %68
[K:F] =B4 E4 | (3gGg (3GgG (3gGg (3gGg | d2 [=Be]2 [Cc]2 a2 | %71
 d2"^Decel................................................................................................................................................" (3ede [Bc]2 z2 | %72
 d2 (3ede [Bc]2 z2 | (3ceg"^Rit." (3bc'e'[Q:1/4=80] (3g'e'c' (3bge |[M:3/4] cB GE C=B, | %75
[M:4/4]"^A tempo."[Q:1/4=100] g4 d4 | z2 ef g2 ed | (3e2 c2 e2 d4- | d4 B2 d2 | e2 f2 c4- | c4 G4 | %81
 A8 | A8 | a4 e4- | e2 ce d2 BG | a4 e4- | e2 ce d2 BG | g4 d4 | d2 Bd c2 AF | g4 d4- | %90
 d2 Bd"^Rit." [Gc]2 [^Fd]2 | [db]2 [^cea]2 [cea]2 [db]2 | [db]2 [^cea]2 [cea]4 | %93
 [db]2 [^cea]2 [cea]2 (3bd'b | [^cea]2 g2 [Adf]4 | [db]2 [^cea]2 [cea]2 [db]2 | %96
 [db]2 [^cea]2 [cea]4 | [db]2 [^cea]2 [cea]2 (3bd'b | [ea]4 g4 |[Q:1/4=70] [fa]8 | c8 |] %101
V:2
 x8 | x8 | B,CDG- GDCB,- | B,CDG- GDCB, | (3B,2 D2 G2 GDCB,- | B,CDG- GDCB, | A,B,CF- FCB,A, | %7
 G,A,B,E- EB,A,G, | F,CA,F DA,CF | F,CA,F DA,CF | D,A,DF AcAF | AFAc G,DGG | D,A,DF AcAF | %13
 AFAc G,DGG | CGEG BDED | B,DBG F,CAG | A,E A2 DAFD | G,FG[Bd] CGE[DB] | [F_e]AeA [_EG]G!3!Ac | %19
 g_e c2 G_ECF | (3F,2 C2 F2 [_EG]GAc | _eecA G_EcF | BFBd [Fd]BdB | dBFD cFBF | B,FBf [A,d]Bdf | %25
 dBFD B,F,B,F, | G,G^CF ACFA | G,DFA dAFD | G,G^CF ACFA | G,DFA dAFD | G,DFA dAFD | G,DFA =BAGF | %32
 CGCE GCEG | cegc' gecG | x8 | x8 | [DA]4 A4 | [DA]4 x4 | x8 | x8 | ^G8 | ^G8 | A,6 x2 | A2 x6 | %44
 ^G4 x4 | x8 | F4 G,4- | G,4 x4 | F,F,CA- A2 z2 | x8 | x8 | x8 | x8 | [G,=F]2 [CE]2 F2 F,2 | x8 | %55
 x8 | =B,2 A,2 ^A,4 | =B,4- B,2 E,2 ||[K:E] B,6 !4!B2 | B,6 z2 | B,2 C4 C2 | B,2 B,4 F2 | %62
 B,4 x2 B2 | B,4 x2 E2 | !0!=G4 f4 | B4 f4 | =G4 f4 | B4 f4 ||[K:F] D2 E2 C2 A,2 | D2 E2 C2 A,2 | %70
 (3FGF (3GFG (3EGE (3GEG | (3FGF (3GFG (3CGE (3GBc | (3FGF (3GFG (3CGE (3GBc | x8 |[M:3/4] x6 | %75
[M:4/4] _B,CDG- GDCB,- | B,CDG- GDCB, | (3B,2 D2 G2 GDCB,- | B,CDG- GDCB, | A,B,CF- FCB,A, | %80
 G,A,B,E- EB,A,G, | F,CA,F DA,CF | F,CA,F DA,CF | D,A,DF AcFc | AFAc G,DGG | D,A,DF AcFc | %86
 AFAc G,DGG | !1!_E,!1!B,!1!_E!0!G BEGE | B,G_EB _E,CAF | _E,B,_EG BEGE | BG_EB A,EA,D, | G8 | G8 | %93
 G6 [DG]2 | A,4 D2 A,2 | G8 | G8 | G6 [DG]2 | [CB]8 | FCFF, A, C2 F- | F8 |] %101
V:3
 x8 | x8 | x8 | x8 | x8 | x8 | x8 | x8 | x8 | x8 | x8 | x8 | x8 | x8 | x8 | x8 | x8 | x8 | x8 | %19
 x8 | x8 | x8 | x8 | x8 | x8 | x8 | x8 | x8 | x8 | x8 | x8 | x8 | x8 | x8 | x8 | x8 | x8 | x8 | %38
 x8 | x8 | x8 | x8 | x8 | x8 | x8 | x8 | x8 | x8 | x8 | x8 | x8 | x8 | x8 | x8 | x8 | (3faf x6 | %56
 x8 | x8 ||[K:E] x8 | x8 | x8 | x8 | x8 | x8 | x8 | x8 | x8 | x8 ||[K:F] (3gGg (3GgG (3gGg (3AgA | %69
 =B4 E2 x2 | x8 | x8 | x8 | x8 |[M:3/4] x6 |[M:4/4] x8 | x8 | x8 | x8 | x8 | x8 | x8 | x8 | x8 | %84
 x8 | x8 | x8 | x8 | x8 | x8 | x8 | x8 | x8 | x8 | x8 | x8 | x8 | x8 | x8 | x8 | a8 |] %101

